!!!COM: Palestrina, Giovanni Perluigi da
!!!OPR: De beata virgine (1570)
!!!OTL: Agnus I
**kern	**kern	**kern	**kern	**kern	**kern
*Ibass	*Itenor	*Itenor	*Icalto	*Icant	*Icant
!Bassus	!Tenor 2	!Tenor 1	!Altus	!Cantus 2	!Cantus 1
*clefF4	*clefGv2	*clefGv2	*clefG2	*clefG2	*clefG2
*k[b-]	*k[b-]	*k[b-]	*k[b-]	*k[b-]	*k[b-]
*?:X	*?:X	*?:X	*?:X	*?:X	*?:X
*M4/2	*M4/2	*M4/2	*M4/2	*M4/2	*M4/2
=1	=1	=1	=1	=1	=1
0r	0r	1r	0g	0r	0r
.	.	[1c	.	.	.
=2	=2	=2	=2	=2	=2
0r	0r	1c]	1e	0r	0cc
.	.	1A	1c	.	.
=3	=3	=3	=3	=3	=3
0r	0r	1F	2.cc	0r	0a
.	.	.	4b-	.	.
.	.	2.f	4a	.	.
.	.	.	4g	.	.
.	.	.	[2f	.	.
.	.	4e	.	.	.
=4	=4	=4	=4	=4	=4
0r	0r	4d	4f]	0r	0f
.	.	4c	4e	.	.
.	.	4B-	4d	.	.
.	.	4A	4c	.	.
.	.	4B-	2d	.	.
.	.	4c	.	.	.
.	.	2d	[2f	.	.
=5	=5	=5	=5	=5	=5
0r	0r	0c	2f]	0cc	0g
.	.	.	4e	.	.
.	.	.	4d	.	.
.	.	.	1e	.	.
=6	=6	=6	=6	=6	=6
0r	0c	0F	1f	0a	0f
.	.	.	2r	.	.
.	.	.	[2cc	.	.
=7	=7	=7	=7	=7	=7
0F	0A	1r	2cc]	2.f	2r
.	.	.	1a	.	1cc
.	.	.	.	4g	.
.	.	[1f	.	4a	.
.	.	.	.	4b-	.
.	.	.	[2f	2cc	[2a
=8	=8	=8	=8	=8	=8
1D	0F	1f]	4f]	2dd	2a]
.	.	.	4g	.	.
.	.	.	2a	1ff	2f
1BB-	.	[1d	[1b-	.	2.ff
.	.	.	.	[2dd	.
.	.	.	.	.	4ee
=9	=9	=9	=9	=9	=9
2.B-	[0G	1d]	2b-]	2dd]	4dd
.	.	.	.	.	4cc
.	.	.	2g	1b-	1dd
4A	.	.	.	.	.
4G	.	[1B-	[1g	.	.
4F	.	.	.	.	.
[2E-	.	.	.	[2ee-	2g
=10	=10	=10	=10	=10	=10
4E-]	1G_	1B-]	1g]	2ee-]	2.b-
4D	.	.	.	.	.
2BB-	.	.	.	2.dd	.
.	.	.	.	.	4a
1C	1G_	1e-	2r	.	1g
.	.	.	.	4cc	.
.	.	.	[2g	[2cc	.
=11	=11	=11	=11	=11	=11
1r	0G]	1d	2g]	2cc]	1gg
.	.	.	2d	2b	.
1C	.	[1c	4e	2.cc	1ee
.	.	.	4f	.	.
.	.	.	4g	.	.
.	.	.	4e	4b-	.
=12	=12	=12	=12	=12	=12
2.F	0F	0c]	1.f	0a	0cc
4G	.	.	.	.	.
4A	.	.	.	.	.
4B-	.	.	.	.	.
[2c	.	.	2e	.	.
=13	=13	=13	=13	=13	=13
2c]	0r	0G	0d	0g	0dd
4B-	.	.	.	.	.
4A	.	.	.	.	.
1B	.	.	.	.	.
=14	=14	=14	=14	=14	=14
1c	0F	2r	2.f	1r	0cc
.	.	2c	.	.	.
.	.	.	4g	.	.
1A	.	2c	[1a	2r	.
.	.	2c	.	2cc	.
=15	=15	=15	=15	=15	=15
2r	0A	2F	0a]	2cc	0r
2F	.	2.c	.	2cc	.
2F	.	.	.	2f	.
.	.	4B-	.	.	.
2F	.	2A	.	[2ff	.
=16	=16	=16	=16	=16	=16
1C	0c	1G	0r	2ff]	1cc
.	.	.	.	2ee	.
1F	.	1A	.	1ff	2cc
.	.	.	.	.	2cc
=17	=17	=17	=17	=17	=17
2D	0d	1B-	1r	0ff	2f
2.BB-	.	.	.	.	1b-
.	.	1F	1f	.	.
4C	.	.	.	.	.
4D	.	.	.	.	2a
4E	.	.	.	.	.
=18	=18	=18	=18	=18	=18
0F	0c	1r	2f	0r	0a
.	.	.	2f	.	.
.	.	2r	2c	.	.
.	.	2c	[2f	.	.
=19	=19	=19	=19	=19	=19
1C	0r	2c	2f]	2r	2g
.	.	2c	2e	2gg	1cc
1r	.	1G	2d	2gg	.
.	.	.	[2g	2gg	2b
=20	=20	=20	=20	=20	=20
0r	0c	2c	4g]	2ee	2cc
.	.	.	4e	.	.
.	.	4F	1a	1ff	4a
.	.	4G	.	.	4b-
.	.	4A	.	.	4cc
.	.	4B-	.	.	4dd
.	.	[2c	2g	2ee	4ee
.	.	.	.	.	4ff
=21	=21	=21	=21	=21	=21
1G	0d	2c]	1g	0dd	0gg
.	.	4B-	.	.	.
.	.	4A	.	.	.
2G	.	1B	2r	.	.
2G	.	.	2g	.	.
=22	=22	=22	=22	=22	=22
2C	0e	1c	2g	0cc	1ee
2.c	.	.	2g	.	.
.	.	[1A	1c	.	2r
4B-	.	.	.	.	.
4A	.	.	.	.	2cc
4G	.	.	.	.	.
=23	=23	=23	=23	=23	=23
2.F	0f	2A]	1c	2r	2cc
.	.	2F	.	2ff	2cc
4E	.	.	.	.	.
1D	.	2.A	1d	2ff	2f
.	.	.	.	2dd	[2a
.	.	4B-	.	.	.
=24	=24	=24	=24	=24	=24
0C	0e	1c	1r	1ee	2a]
.	.	.	.	.	1g
.	.	[1G	[1g	2cc	.
.	.	.	.	2cc	[2cc
=25	=25	=25	=25	=25	=25
0G	0d	1G]	0g]	0dd	2cc]
.	.	.	.	.	4b-
.	.	.	.	.	4a
.	.	2r	.	.	1b
.	.	[2g	.	.	.
=26	=26	=26	=26	=26	=26
0C	0c	4g]	1e	1ee	2.cc
.	.	4f	.	.	.
.	.	4e	.	.	.
.	.	4d	.	.	8b-
.	.	.	.	.	8a
.	.	4e	1r	1r	4g
.	.	4d	.	.	4f
.	.	4c	.	.	2g
.	.	4B-	.	.	.
=27	=27	=27	=27	=27	=27
0r	0r	4A	2r	[0cc	1.a
.	.	4G	.	.	.
.	.	2F	1f	.	.
.	.	1c	.	.	.
.	.	.	2e	.	2g
=28	=28	=28	=28	=28	=28
0r	0r	1r	2f	1cc]	2a
.	.	.	2c	.	2g
.	.	2r	1d	[1a	2f
.	.	[2d	.	.	[2ff
=29	=29	=29	=29	=29	=29
0r	0r	2d]	1A	0a]	2ff]
.	.	2c#	.	.	2ee
.	.	2d	2f	.	2ff
.	.	2A	2e	.	2cc
=30	=30	=30	=30	=30	=30
2r	0r	1B-	2d	[0f	1dd
1B-	.	.	2B-	.	.
.	.	1F	2c	.	1cc
2A	.	.	[2f	.	.
=31	=31	=31	=31	=31	=31
2B-	0r	1r	4f]	1f]	2dd
.	.	.	4e	.	.
2A	.	.	2c	.	1cc
2.G	.	2r	1d	[1g	.
.	.	2G	.	.	2b
4F	.	.	.	.	.
=32	=32	=32	=32	=32	=32
2E	0r	2G	2c	2g]	1cc
2F	.	2.c	2c	1a	.
1D	.	.	2d	.	1f
.	.	4B	.	.	.
.	.	4B	[2f	4g	.
.	.	4A	.	4f	.
=33	=33	=33	=33	=33	=33
1C	1r	1c	4f]	1g	2r
.	.	.	8e	.	.
.	.	.	8d	.	.
.	.	.	2e	.	2.cc
2r	[1c	2.F	2f	2.a	.
.	.	.	.	.	4b-
[2F	.	.	[2a	.	4a
.	.	4G	.	4b-	4g
=34	=34	=34	=34	=34	=34
2F]	0c]	4A	2a]	0cc	2f
.	.	4F	.	.	.
2E	.	2.c	2g	.	2g
2F	.	.	2f	.	2a
.	.	4d	.	.	.
2C	.	2e	2e	.	2g
=35	=35	=35	=35	=35	=35
1.D	[0A	2f	2.d	2r	2.f
.	.	1d	.	1ff	.
.	.	.	4e	.	4g
.	.	.	4f	.	1a
.	.	.	4d	.	.
2AA	.	2c#	2e	2ee	.
=36	=36	=36	=36	=36	=36
2D	1A]	2d	2d	2ff	1a
2F	.	2A	2a	2cc	.
2.BB-	[1F	4B-	2d	1dd	2r
.	.	4c	.	.	.
.	.	4d	[2f	.	[2dd
4C	.	4e	.	.	.
=37	=37	=37	=37	=37	=37
4D	0F]	1f	4f]	1a	2dd]
4E	.	.	4g	.	.
2F	.	.	2a	.	2cc
2BB-	.	1d	2f	1ff	2dd
2D	.	.	2d	.	2a
=38	=38	=38	=38	=38	=38
1C	[0G	1e	[0g	2ee	1cc
.	.	.	.	1cc	.
1r	.	1d	.	.	1dd
.	.	.	.	2b	.
=39	=39	=39	=39	=39	=39
1C	1G]	[0c	1g]	0cc	1ee
1F	[1A	.	[1f	.	2.ff
.	.	.	.	.	8ee
.	.	.	.	.	8dd
=40	=40	=40	=40	=40	=40
1F	2A]	0c]	1f]	2r	2cc
.	4G	.	.	1cc	1ff
.	4F	.	.	.	.
1C	1G	.	2r	.	.
.	.	.	[2c	2cc	2ee
=41	=41	=41	=41	=41	=41
2F	[0F	2r	2c]	2a	2.ff
4BB-	.	1B-	2d	2f	.
4C	.	.	.	.	4ee
4D	.	.	2f	2.ff	2dd
4E	.	.	.	.	.
2F	.	2A	2f	.	2cc
.	.	.	.	4ee	.
=42	=42	=42	=42	=42	=42
0BB-	1F_	2B-	0f	0dd	2.b-
.	.	2F	.	.	.
.	.	.	.	.	8a
.	.	.	.	.	8g
.	1F_	1B-	.	.	2f
.	.	.	.	.	2g
=43	=43	=43	=43	=43	=43
0F	0F]	0A	0f	0cc	0a
==	==	==	==	==	==
*-	*-	*-	*-	*-	*-
!!!CDT: 1525/^1526/-1594/2/2
!!!OCY: Italia
!!!AGN: Mass (Paraphrase)
!!!AST: renaissance, vocal
!!!ASW: Gregorian Mass
!!!PWK: Masses, Book 3
!!!RNB: Cadence finals: G,D,C,E,F
!!!YOR: Le Opere Complete, v. 6, p. 175
!!!YOO: Rome, Italy: Fratelli Scalera
!!!END: 1992//
!!!EED: John Miller
!!!YEC: Copyright 2000, John Miller
!!!YEN: United States of America
!!!YEM: Rights to all derivative electronic formats reserved.
!!!YEM: Refer to licensing agreement for further details.
!!!YEM: This file must be accompanied by the licensing agreement.
!!!YEM: A copy of the licensing agreement may be found at http://www.music-cog.ohio-state.edu/HumdrumDatabases/Palestrina/license.txt
!!!EMD: converted to Humdrum by Bret Aarden
